public/images/icons/re-icons/re-lock.svg

<svg width="14" height="17" viewBox="0 0 14 17" fill="none" xmlns="http://www.w3.org/2000/svg">
<g id="Group 2834">
<path id="Rectangle 1698" d="M1.79998 7.31641C1.27531 7.31641 0.849976 7.74174 0.849976 8.26641V13.9997C0.849976 14.9662 1.63348 15.7497 2.59998 15.7497H11C11.9665 15.7497 12.75 14.9662 12.75 13.9997V8.26641C12.75 7.74173 12.3246 7.31641 11.8 7.31641H1.79998Z" stroke="#D1D5DA" stroke-width="1.5"/>
<path id="Ellipse 233" d="M9.51665 4.46667C9.51665 4.88088 9.85243 5.21667 10.2666 5.21667C10.6809 5.21667 11.0166 4.88088 11.0166 4.46667H9.51665ZM4.08331 4.46667C4.08331 2.96629 5.29961 1.75 6.79998 1.75V0.25C4.47118 0.25 2.58331 2.13787 2.58331 4.46667H4.08331ZM6.79998 1.75C8.30035 1.75 9.51665 2.96629 9.51665 4.46667H11.0166C11.0166 2.13787 9.12878 0.25 6.79998 0.25V1.75ZM2.58331 4.46667V6.63333H4.08331V4.46667H2.58331Z" fill="#D1D5DA"/>
<path id="Vector 798" d="M6.80017 10.666V13.266" stroke="#D1D5DA" stroke-width="1.5" stroke-linecap="round"/>
</g>
</svg>

<svg fill="none" viewBox="0 0 14 17"><path stroke="#D1D5DA" stroke-width="1.5" d="M1.8 7.316a.95.95 0 00-.95.95V14c0 .966.783 1.75 1.75 1.75H11A1.75 1.75 0 0012.75 14V8.266a.95.95 0 00-.95-.95h-10z"/><path fill="#D1D5DA" d="M9.517 4.467a.75.75 0 101.5 0h-1.5zm-5.434 0c0-1.5 1.217-2.717 2.717-2.717V.25a4.217 4.217 0 00-4.217 4.217h1.5zM6.8 1.75c1.5 0 2.717 1.216 2.717 2.717h1.5A4.217 4.217 0 006.8.25v1.5zM2.583 4.467v2.166h1.5V4.467h-1.5z"/><path stroke="#D1D5DA" stroke-linecap="round" stroke-width="1.5" d="M6.8 10.666v2.6"/></svg>
